X:800
T: Cornhill
T: Cnoc an Arbhair
S: B.Breathnach: "Ceol Rince na hEireann" II/236
Z: B.Black
L: 1/8
M: 4/4
R: reel
K: Ddor
D2 ED ADED|C2 EG cAGE|D2 ED ADED|AGAG EDCE|
D3D ADED|C2 EG cAGE|D3D ADED|DEAG ED D2 ||
Addc d2 dc|AGAB c2-c2|Addc d2-d2|eaag eddc|
Addc d3c|AGAB c2-c2|GAcd eged|cAGE ED D2 ||
ad (3ddd a2 ad|gc (3ccc gcec|ad (3ddd a2 ag|\
eaag edde|
ad (3ddd adbd|gc (3ccc gggA|GAcd eged|cAGE EDCE ||

